static/img/kroki/2db102675e526a092b0bb6824d8985ca.svg

<?xml version="1.0" encoding="us-ascii" standalone="no"?><svg xmlns="http://www.w3.org/2000/svg" xmlns:xlink="http://www.w3.org/1999/xlink" contentStyleType="text/css" height="1085px" preserveAspectRatio="none" style="width:546px;height:1085px;" version="1.1" viewBox="0 0 546 1085" width="546px" zoomAndPan="magnify"><defs/><g><!--class gcp_deprecation_status--><g id="elem_gcp_deprecation_status"><rect codeLine="23" fill="#3D176E" height="179.2734" id="gcp_deprecation_status" rx="2.5" ry="2.5" style="stroke:#000D19;stroke-width:0.5;" width="237" x="138.5" y="899.42"/><ellipse cx="153.5" cy="919.3145" fill="#ADD1B2" rx="11" ry="11" style="stroke:#181818;stroke-width:1.0;"/><path d="M156.4688,924.9552 Q155.8906,925.252 155.25,925.3927 Q154.6094,925.5489 153.9063,925.5489 Q151.4063,925.5489 150.0781,923.9083 Q148.7656,922.252 148.7656,919.127 Q148.7656,916.002 150.0781,914.3458 Q151.4063,912.6895 153.9063,912.6895 Q154.6094,912.6895 155.25,912.8458 Q155.9063,913.002 156.4688,913.2989 L156.4688,916.0177 Q155.8438,915.4395 155.25,915.1739 Q154.6563,914.8927 154.0313,914.8927 Q152.6875,914.8927 152,915.9708 Q151.3125,917.0333 151.3125,919.127 Q151.3125,921.2208 152,922.2989 Q152.6875,923.3614 154.0313,923.3614 Q154.6563,923.3614 155.25,923.0958 Q155.8438,922.8145 156.4688,922.2364 L156.4688,924.9552 Z " fill="#000000"/><text fill="#D9B8FF" font-family="Helvetica" font-size="17" lengthAdjust="spacing" textLength="195" x="172.5" y="925.1998">gcp_deprecation_status</text><line style="stroke:#000D19;stroke-width:0.5;" x1="139.5" x2="374.5" y1="939.2091" y2="939.2091"/><text fill="#D9B8FF" font-family="sans-serif" font-size="14" font-weight="bold" lengthAdjust="spacing" textLength="60" x="149.5" y="961.2042">deleted</text><text fill="#D9B8FF" font-family="sans-serif" font-size="14" lengthAdjust="spacing" textLength="48" x="209.5" y="961.2042">: string</text><text fill="#D9B8FF" font-family="sans-serif" font-size="14" font-weight="bold" lengthAdjust="spacing" textLength="91" x="149.5" y="987.5011">deprecated</text><text fill="#D9B8FF" font-family="sans-serif" font-size="14" lengthAdjust="spacing" textLength="48" x="240.5" y="987.5011">: string</text><text fill="#D9B8FF" font-family="sans-serif" font-size="14" font-weight="bold" lengthAdjust="spacing" textLength="69" x="149.5" y="1013.7979">obsolete</text><text fill="#D9B8FF" font-family="sans-serif" font-size="14" lengthAdjust="spacing" textLength="48" x="218.5" y="1013.7979">: string</text><text fill="#D9B8FF" font-family="sans-serif" font-size="14" font-weight="bold" lengthAdjust="spacing" textLength="99" x="149.5" y="1040.0948">replacement</text><text fill="#D9B8FF" font-family="sans-serif" font-size="14" lengthAdjust="spacing" textLength="48" x="248.5" y="1040.0948">: string</text><text fill="#D9B8FF" font-family="sans-serif" font-size="14" font-weight="bold" lengthAdjust="spacing" textLength="40" x="149.5" y="1066.3917">state</text><text fill="#D9B8FF" font-family="sans-serif" font-size="14" lengthAdjust="spacing" textLength="48" x="189.5" y="1066.3917">: string</text></g><!--class gcp_network_edge_security_service--><g id="elem_gcp_network_edge_security_service"><rect codeLine="30" fill="#3D176E" height="126.6797" id="gcp_network_edge_security_service" rx="2.5" ry="2.5" style="stroke:#000D19;stroke-width:0.5;" width="340" x="199" y="712.74"/><ellipse cx="214" cy="732.6345" fill="#ADD1B2" rx="11" ry="11" style="stroke:#181818;stroke-width:1.0;"/><path d="M216.9688,738.2752 Q216.3906,738.572 215.75,738.7127 Q215.1094,738.8689 214.4063,738.8689 Q211.9063,738.8689 210.5781,737.2283 Q209.2656,735.572 209.2656,732.447 Q209.2656,729.322 210.5781,727.6658 Q211.9063,726.0095 214.4063,726.0095 Q215.1094,726.0095 215.75,726.1658 Q216.4063,726.322 216.9688,726.6189 L216.9688,729.3377 Q216.3438,728.7595 215.75,728.4939 Q215.1563,728.2127 214.5313,728.2127 Q213.1875,728.2127 212.5,729.2908 Q211.8125,730.3533 211.8125,732.447 Q211.8125,734.5408 212.5,735.6189 Q213.1875,736.6814 214.5313,736.6814 Q215.1563,736.6814 215.75,736.4158 Q216.3438,736.1345 216.9688,735.5564 L216.9688,738.2752 Z " fill="#000000"/><text fill="#D9B8FF" font-family="Helvetica" font-size="17" lengthAdjust="spacing" textLength="298" x="233" y="738.5198">gcp_network_edge_security_service</text><line style="stroke:#000D19;stroke-width:0.5;" x1="200" x2="538" y1="752.5291" y2="752.5291"/><text fill="#D9B8FF" font-family="sans-serif" font-size="14" font-weight="bold" lengthAdjust="spacing" textLength="149" x="210" y="774.5242">service_fingerprint</text><text fill="#D9B8FF" font-family="sans-serif" font-size="14" lengthAdjust="spacing" textLength="48" x="359" y="774.5242">: string</text><text fill="#D9B8FF" font-family="sans-serif" font-size="14" font-weight="bold" lengthAdjust="spacing" textLength="182" x="210" y="800.8211">service_security_policy</text><text fill="#D9B8FF" font-family="sans-serif" font-size="14" lengthAdjust="spacing" textLength="48" x="392" y="800.8211">: string</text><text fill="#D9B8FF" font-family="sans-serif" font-size="14" font-weight="bold" lengthAdjust="spacing" textLength="190" x="210" y="827.1179">service_self_link_with_id</text><text fill="#D9B8FF" font-family="sans-serif" font-size="14" lengthAdjust="spacing" textLength="48" x="400" y="827.1179">: string</text></g><!--class gcp_resource--><g id="elem_gcp_resource"><rect codeLine="35" fill="#3D176E" height="152.9766" id="gcp_resource" rx="2.5" ry="2.5" style="stroke:#000D19;stroke-width:0.5;" width="348" x="7" y="438.76"/><ellipse cx="117.75" cy="458.6545" fill="#ADD1B2" rx="11" ry="11" style="stroke:#181818;stroke-width:1.0;"/><path d="M120.7188,464.2952 Q120.1406,464.592 119.5,464.7327 Q118.8594,464.8889 118.1563,464.8889 Q115.6563,464.8889 114.3281,463.2483 Q113.0156,461.592 113.0156,458.467 Q113.0156,455.342 114.3281,453.6858 Q115.6563,452.0295 118.1563,452.0295 Q118.8594,452.0295 119.5,452.1858 Q120.1563,452.342 120.7188,452.6389 L120.7188,455.3577 Q120.0938,454.7795 119.5,454.5139 Q118.9063,454.2327 118.2813,454.2327 Q116.9375,454.2327 116.25,455.3108 Q115.5625,456.3733 115.5625,458.467 Q115.5625,460.5608 116.25,461.6389 Q116.9375,462.7014 118.2813,462.7014 Q118.9063,462.7014 119.5,462.4358 Q120.0938,462.1545 120.7188,461.5764 L120.7188,464.2952 Z " fill="#000000"/><text fill="#D9B8FF" font-family="Helvetica" font-size="17" lengthAdjust="spacing" textLength="108" x="143.25" y="464.5398">gcp_resource</text><line style="stroke:#000D19;stroke-width:0.5;" x1="8" x2="354" y1="478.5491" y2="478.5491"/><text fill="#D9B8FF" font-family="sans-serif" font-size="14" font-weight="bold" lengthAdjust="spacing" textLength="151" x="18" y="500.5442">deprecation_status</text><text fill="#D9B8FF" font-family="sans-serif" font-size="14" lengthAdjust="spacing" textLength="175" x="169" y="500.5442">: gcp_deprecation_status</text><text fill="#D9B8FF" font-family="sans-serif" font-size="14" font-weight="bold" lengthAdjust="spacing" textLength="89" x="18" y="526.8411">description</text><text fill="#D9B8FF" font-family="sans-serif" font-size="14" lengthAdjust="spacing" textLength="48" x="107" y="526.8411">: string</text><text fill="#D9B8FF" font-family="sans-serif" font-size="14" font-weight="bold" lengthAdjust="spacing" textLength="128" x="18" y="553.1379">label_fingerprint</text><text fill="#D9B8FF" font-family="sans-serif" font-size="14" lengthAdjust="spacing" textLength="48" x="146" y="553.1379">: string</text><text fill="#D9B8FF" font-family="sans-serif" font-size="14" font-weight="bold" lengthAdjust="spacing" textLength="27" x="18" y="579.4348">link</text><text fill="#D9B8FF" font-family="sans-serif" font-size="14" lengthAdjust="spacing" textLength="48" x="45" y="579.4348">: string</text></g><!--class resource--><g id="elem_resource"><rect codeLine="41" fill="#3D176E" height="310.7578" id="resource" rx="2.5" ry="2.5" style="stroke:#000D19;stroke-width:0.5;" width="227" x="67.5" y="7"/><ellipse cx="136.25" cy="26.8945" fill="#ADD1B2" rx="11" ry="11" style="stroke:#181818;stroke-width:1.0;"/><path d="M139.2188,32.5352 Q138.6406,32.832 138,32.9727 Q137.3594,33.1289 136.6563,33.1289 Q134.1563,33.1289 132.8281,31.4883 Q131.5156,29.832 131.5156,26.707 Q131.5156,23.582 132.8281,21.9258 Q134.1563,20.2695 136.6563,20.2695 Q137.3594,20.2695 138,20.4258 Q138.6563,20.582 139.2188,20.8789 L139.2188,23.5977 Q138.5938,23.0195 138,22.7539 Q137.4063,22.4727 136.7813,22.4727 Q135.4375,22.4727 134.75,23.5508 Q134.0625,24.6133 134.0625,26.707 Q134.0625,28.8008 134.75,29.8789 Q135.4375,30.9414 136.7813,30.9414 Q137.4063,30.9414 138,30.6758 Q138.5938,30.3945 139.2188,29.8164 L139.2188,32.5352 Z " fill="#000000"/><text fill="#D9B8FF" font-family="Helvetica" font-size="17" lengthAdjust="spacing" textLength="71" x="161.75" y="32.7798">resource</text><line style="stroke:#000D19;stroke-width:0.5;" x1="68.5" x2="293.5" y1="46.7891" y2="46.7891"/><text fill="#D9B8FF" font-family="sans-serif" font-size="14" font-weight="bold" lengthAdjust="spacing" textLength="29" x="78.5" y="68.7842">age</text><text fill="#D9B8FF" font-family="sans-serif" font-size="14" lengthAdjust="spacing" textLength="66" x="107.5" y="68.7842">: duration</text><text fill="#D9B8FF" font-family="sans-serif" font-size="14" font-weight="bold" lengthAdjust="spacing" textLength="43" x="78.5" y="95.0811">atime</text><text fill="#D9B8FF" font-family="sans-serif" font-size="14" lengthAdjust="spacing" textLength="70" x="121.5" y="95.0811">: datetime</text><text fill="#D9B8FF" font-family="sans-serif" font-size="14" font-weight="bold" lengthAdjust="spacing" textLength="43" x="78.5" y="121.3779">ctime</text><text fill="#D9B8FF" font-family="sans-serif" font-size="14" lengthAdjust="spacing" textLength="70" x="121.5" y="121.3779">: datetime</text><text fill="#D9B8FF" font-family="sans-serif" font-size="14" font-weight="bold" lengthAdjust="spacing" textLength="14" x="78.5" y="147.6748">id</text><text fill="#D9B8FF" font-family="sans-serif" font-size="14" lengthAdjust="spacing" textLength="48" x="92.5" y="147.6748">: string</text><text fill="#D9B8FF" font-family="sans-serif" font-size="14" font-weight="bold" lengthAdjust="spacing" textLength="33" x="78.5" y="173.9717">kind</text><text fill="#D9B8FF" font-family="sans-serif" font-size="14" lengthAdjust="spacing" textLength="48" x="111.5" y="173.9717">: string</text><text fill="#D9B8FF" font-family="sans-serif" font-size="14" font-weight="bold" lengthAdjust="spacing" textLength="90" x="78.5" y="200.2686">last_access</text><text fill="#D9B8FF" font-family="sans-serif" font-size="14" lengthAdjust="spacing" textLength="66" x="168.5" y="200.2686">: duration</text><text fill="#D9B8FF" font-family="sans-serif" font-size="14" font-weight="bold" lengthAdjust="spacing" textLength="90" x="78.5" y="226.5654">last_update</text><text fill="#D9B8FF" font-family="sans-serif" font-size="14" lengthAdjust="spacing" textLength="66" x="168.5" y="226.5654">: duration</text><text fill="#D9B8FF" font-family="sans-serif" font-size="14" font-weight="bold" lengthAdjust="spacing" textLength="48" x="78.5" y="252.8623">mtime</text><text fill="#D9B8FF" font-family="sans-serif" font-size="14" lengthAdjust="spacing" textLength="70" x="126.5" y="252.8623">: datetime</text><text fill="#D9B8FF" font-family="sans-serif" font-size="14" font-weight="bold" lengthAdjust="spacing" textLength="43" x="78.5" y="279.1592">name</text><text fill="#D9B8FF" font-family="sans-serif" font-size="14" lengthAdjust="spacing" textLength="48" x="121.5" y="279.1592">: string</text><text fill="#D9B8FF" font-family="sans-serif" font-size="14" font-weight="bold" lengthAdjust="spacing" textLength="34" x="78.5" y="305.4561">tags</text><text fill="#D9B8FF" font-family="sans-serif" font-size="14" lengthAdjust="spacing" textLength="171" x="112.5" y="305.4561">: dictionary[string, string]</text></g><!--link gcp_network_edge_security_service to gcp_deprecation_status--><g id="link_gcp_network_edge_security_service_gcp_deprecation_status"><path codeLine="53" d="M335.7,839.81 C325.83,858.39 317.6534,873.8105 307.0834,893.7205 " fill="none" id="gcp_network_edge_security_service-to-gcp_deprecation_status" style="stroke:#FFAF37;stroke-width:2.0;"/><polygon fill="#FFAF37" points="304.27,899.02,312.0231,892.9464,306.6145,894.6038,304.9572,889.1951,304.27,899.02" style="stroke:#FFAF37;stroke-width:2.0;"/></g><!--reverse link gcp_resource to gcp_network_edge_security_service--><g id="link_gcp_resource_gcp_network_edge_security_service"><path codeLine="54" d="M246.7178,606.724 C274.4478,644.904 297.09,676.07 323.37,712.26 " fill="none" id="gcp_resource-backto-gcp_network_edge_security_service" style="stroke:#FFAF37;stroke-width:2.0;"/><polygon fill="none" points="236.14,592.16,241.8631,610.2499,251.5725,603.1981,236.14,592.16" style="stroke:#FFAF37;stroke-width:2.0;"/></g><!--link gcp_resource to gcp_deprecation_status--><g id="link_gcp_resource_gcp_deprecation_status"><path codeLine="55" d="M171.49,592.19 C165.49,658.43 162.16,756.62 182,839.42 C186.82,859.51 192.2281,874.5544 201.2281,893.6144 " fill="none" id="gcp_resource-to-gcp_deprecation_status" style="stroke:#FFAF37;stroke-width:2.0;"/><polygon fill="#FFAF37" points="203.79,899.04,203.5642,889.1937,201.6551,894.5187,196.3301,892.6096,203.79,899.04" style="stroke:#FFAF37;stroke-width:2.0;"/></g><!--reverse link resource to gcp_resource--><g id="link_resource_gcp_resource"><path codeLine="56" d="M181,336.04 C181,377.75 181,403.04 181,438.31 " fill="none" id="resource-backto-gcp_resource" style="stroke:#FFAF37;stroke-width:2.0;"/><polygon fill="none" points="181,318.04,175,336.04,187,336.04,181,318.04" style="stroke:#FFAF37;stroke-width:2.0;"/></g><!--SRC=[XPHDYzim48Rl-HM6lOK6aYvjDaifR0EblIobsrifHfR6Zh0iYT5uW_lntolPtaN-IcxcdMTctXaDFaa12LIMcgI2AWDqArTARHcoAdb0DEUZKGQJcpnd-Ur-7FniD5q57ba5oHTGpq2Iip7nuoHvgS6vv6qK-iHuMQ2fjUZA4pBjV0WqHTHHCUSUY51cDK5aHXookpmVa-EYDxTYjtyF4yoW0EoHxNOhTeSnShNLnRbVYIVv6v9TlBH7Gp2nEMdHKXTT1Y8oEHdq9RxeyHiJGkeYUHTftpjFg047-jE92NCETCwKYziu0WH3ZONZP2eut8byFmj_NO9NFAmkARXD1LW4paWQdJfYLBlapsgz5g20GApNzxuUUa-jrg4ZsMJE17WW8bZ5E5J-q0PwQ16J_o8h6kXii4n1590wu3LAQlm7FaiEhQl-EyrzAg3r5KRL-_XhiZLAycQ1KNcgf2xJiwHJAiM2AmHdQkmDJBSLikRtsEAEexH177XGB0ErE4KmDMDcO8GLxHP5ZMtBe92iEirlE7nxZSzeSlXw_cp4o9kZb77kVoMZ3csajg9_mIXIpVJHh1gU1B6YgoXvI6FO_EnYRthcbn_r-XriDX-N5ZvuhWz_DvlDzRiQ9bqeFbFuHLhz1m00]--></g></svg>

<svg xmlns="http://www.w3.org/2000/svg" width="546" height="1085" viewBox="0 0 546 1085"><rect width="237" height="179.273" x="138.5" y="899.42" fill="#3D176E" rx="2.5" ry="2.5" style="stroke:#000d19;stroke-width:.5"/><circle cx="153.5" cy="919.314" r="11" fill="#ADD1B2" style="stroke:#181818;stroke-width:1"/><path d="M156.469 924.955q-.578.297-1.219.438-.64.156-1.344.156-2.5 0-3.828-1.64-1.312-1.657-1.312-4.782t1.312-4.781q1.328-1.657 3.828-1.657.703 0 1.344.157.656.156 1.219.453v2.719q-.625-.579-1.219-.844-.594-.281-1.219-.281-1.344 0-2.031 1.078-.687 1.062-.687 3.156t.687 3.172q.688 1.062 2.031 1.062.625 0 1.219-.265.594-.282 1.219-.86z"/><text x="172.5" y="925.2" fill="#D9B8FF" font-family="Helvetica" font-size="17" textLength="195">gcp_deprecation_status</text><path d="M139.5 939.209h235" style="stroke:#000d19;stroke-width:.5"/><text x="149.5" y="961.204" fill="#D9B8FF" font-family="sans-serif" font-size="14" font-weight="bold" textLength="60">deleted</text><text x="209.5" y="961.204" fill="#D9B8FF" font-family="sans-serif" font-size="14" textLength="48">: string</text><text x="149.5" y="987.501" fill="#D9B8FF" font-family="sans-serif" font-size="14" font-weight="bold" textLength="91">deprecated</text><text x="240.5" y="987.501" fill="#D9B8FF" font-family="sans-serif" font-size="14" textLength="48">: string</text><text x="149.5" y="1013.798" fill="#D9B8FF" font-family="sans-serif" font-size="14" font-weight="bold" textLength="69">obsolete</text><text x="218.5" y="1013.798" fill="#D9B8FF" font-family="sans-serif" font-size="14" textLength="48">: string</text><text x="149.5" y="1040.095" fill="#D9B8FF" font-family="sans-serif" font-size="14" font-weight="bold" textLength="99">replacement</text><text x="248.5" y="1040.095" fill="#D9B8FF" font-family="sans-serif" font-size="14" textLength="48">: string</text><text x="149.5" y="1066.392" fill="#D9B8FF" font-family="sans-serif" font-size="14" font-weight="bold" textLength="40">state</text><text x="189.5" y="1066.392" fill="#D9B8FF" font-family="sans-serif" font-size="14" textLength="48">: string</text><rect width="340" height="126.68" x="199" y="712.74" fill="#3D176E" rx="2.5" ry="2.5" style="stroke:#000d19;stroke-width:.5"/><circle cx="214" cy="732.635" r="11" fill="#ADD1B2" style="stroke:#181818;stroke-width:1"/><path d="M216.969 738.275q-.578.297-1.219.438-.64.156-1.344.156-2.5 0-3.828-1.64-1.312-1.657-1.312-4.782t1.312-4.781q1.328-1.657 3.828-1.657.703 0 1.344.157.656.156 1.219.453v2.719q-.625-.578-1.219-.844-.594-.281-1.219-.281-1.344 0-2.031 1.078-.687 1.062-.687 3.156t.687 3.172q.688 1.062 2.031 1.062.625 0 1.219-.265.594-.282 1.219-.86z"/><text x="233" y="738.52" fill="#D9B8FF" font-family="Helvetica" font-size="17" textLength="298">gcp_network_edge_security_service</text><path d="M200 752.529h338" style="stroke:#000d19;stroke-width:.5"/><text x="210" y="774.524" fill="#D9B8FF" font-family="sans-serif" font-size="14" font-weight="bold" textLength="149">service_fingerprint</text><text x="359" y="774.524" fill="#D9B8FF" font-family="sans-serif" font-size="14" textLength="48">: string</text><text x="210" y="800.821" fill="#D9B8FF" font-family="sans-serif" font-size="14" font-weight="bold" textLength="182">service_security_policy</text><text x="392" y="800.821" fill="#D9B8FF" font-family="sans-serif" font-size="14" textLength="48">: string</text><text x="210" y="827.118" fill="#D9B8FF" font-family="sans-serif" font-size="14" font-weight="bold" textLength="190">service_self_link_with_id</text><text x="400" y="827.118" fill="#D9B8FF" font-family="sans-serif" font-size="14" textLength="48">: string</text><rect width="348" height="152.977" x="7" y="438.76" fill="#3D176E" rx="2.5" ry="2.5" style="stroke:#000d19;stroke-width:.5"/><circle cx="117.75" cy="458.654" r="11" fill="#ADD1B2" style="stroke:#181818;stroke-width:1"/><path d="M120.719 464.295q-.578.297-1.219.438-.64.156-1.344.156-2.5 0-3.828-1.64-1.312-1.657-1.312-4.782t1.312-4.781q1.328-1.656 3.828-1.656.703 0 1.344.156.656.156 1.219.453v2.719q-.625-.579-1.219-.844-.594-.281-1.219-.281-1.344 0-2.031 1.078-.687 1.062-.687 3.156t.687 3.172q.688 1.062 2.031 1.062.625 0 1.219-.265.594-.281 1.219-.86z"/><text x="143.25" y="464.54" fill="#D9B8FF" font-family="Helvetica" font-size="17" textLength="108">gcp_resource</text><path d="M8 478.549h346" style="stroke:#000d19;stroke-width:.5"/><text x="18" y="500.544" fill="#D9B8FF" font-family="sans-serif" font-size="14" font-weight="bold" textLength="151">deprecation_status</text><text x="169" y="500.544" fill="#D9B8FF" font-family="sans-serif" font-size="14" textLength="175">: gcp_deprecation_status</text><text x="18" y="526.841" fill="#D9B8FF" font-family="sans-serif" font-size="14" font-weight="bold" textLength="89">description</text><text x="107" y="526.841" fill="#D9B8FF" font-family="sans-serif" font-size="14" textLength="48">: string</text><text x="18" y="553.138" fill="#D9B8FF" font-family="sans-serif" font-size="14" font-weight="bold" textLength="128">label_fingerprint</text><text x="146" y="553.138" fill="#D9B8FF" font-family="sans-serif" font-size="14" textLength="48">: string</text><text x="18" y="579.435" fill="#D9B8FF" font-family="sans-serif" font-size="14" font-weight="bold" textLength="27">link</text><text x="45" y="579.435" fill="#D9B8FF" font-family="sans-serif" font-size="14" textLength="48">: string</text><rect width="227" height="310.758" x="67.5" y="7" fill="#3D176E" rx="2.5" ry="2.5" style="stroke:#000d19;stroke-width:.5"/><circle cx="136.25" cy="26.895" r="11" fill="#ADD1B2" style="stroke:#181818;stroke-width:1"/><path d="M139.219 32.535q-.578.297-1.219.438-.64.156-1.344.156-2.5 0-3.828-1.64-1.312-1.657-1.312-4.782t1.312-4.781q1.328-1.656 3.828-1.656.703 0 1.344.156.656.156 1.219.453v2.719q-.625-.578-1.219-.844-.594-.281-1.219-.281-1.344 0-2.031 1.078-.687 1.062-.687 3.156t.687 3.172q.688 1.062 2.031 1.062.625 0 1.219-.265.594-.281 1.219-.86z"/><text x="161.75" y="32.78" fill="#D9B8FF" font-family="Helvetica" font-size="17" textLength="71">resource</text><path d="M68.5 46.789h225" style="stroke:#000d19;stroke-width:.5"/><text x="78.5" y="68.784" fill="#D9B8FF" font-family="sans-serif" font-size="14" font-weight="bold" textLength="29">age</text><text x="107.5" y="68.784" fill="#D9B8FF" font-family="sans-serif" font-size="14" textLength="66">: duration</text><text x="78.5" y="95.081" fill="#D9B8FF" font-family="sans-serif" font-size="14" font-weight="bold" textLength="43">atime</text><text x="121.5" y="95.081" fill="#D9B8FF" font-family="sans-serif" font-size="14" textLength="70">: datetime</text><text x="78.5" y="121.378" fill="#D9B8FF" font-family="sans-serif" font-size="14" font-weight="bold" textLength="43">ctime</text><text x="121.5" y="121.378" fill="#D9B8FF" font-family="sans-serif" font-size="14" textLength="70">: datetime</text><text x="78.5" y="147.675" fill="#D9B8FF" font-family="sans-serif" font-size="14" font-weight="bold" textLength="14">id</text><text x="92.5" y="147.675" fill="#D9B8FF" font-family="sans-serif" font-size="14" textLength="48">: string</text><text x="78.5" y="173.972" fill="#D9B8FF" font-family="sans-serif" font-size="14" font-weight="bold" textLength="33">kind</text><text x="111.5" y="173.972" fill="#D9B8FF" font-family="sans-serif" font-size="14" textLength="48">: string</text><text x="78.5" y="200.269" fill="#D9B8FF" font-family="sans-serif" font-size="14" font-weight="bold" textLength="90">last_access</text><text x="168.5" y="200.269" fill="#D9B8FF" font-family="sans-serif" font-size="14" textLength="66">: duration</text><text x="78.5" y="226.565" fill="#D9B8FF" font-family="sans-serif" font-size="14" font-weight="bold" textLength="90">last_update</text><text x="168.5" y="226.565" fill="#D9B8FF" font-family="sans-serif" font-size="14" textLength="66">: duration</text><text x="78.5" y="252.862" fill="#D9B8FF" font-family="sans-serif" font-size="14" font-weight="bold" textLength="48">mtime</text><text x="126.5" y="252.862" fill="#D9B8FF" font-family="sans-serif" font-size="14" textLength="70">: datetime</text><text x="78.5" y="279.159" fill="#D9B8FF" font-family="sans-serif" font-size="14" font-weight="bold" textLength="43">name</text><text x="121.5" y="279.159" fill="#D9B8FF" font-family="sans-serif" font-size="14" textLength="48">: string</text><text x="78.5" y="305.456" fill="#D9B8FF" font-family="sans-serif" font-size="14" font-weight="bold" textLength="34">tags</text><text x="112.5" y="305.456" fill="#D9B8FF" font-family="sans-serif" font-size="14" textLength="171">: dictionary[string, string]</text><path fill="none" d="M335.7 839.81c-9.87 18.58-18.047 34-28.617 53.91" style="stroke:#ffaf37;stroke-width:2"/><path fill="#FFAF37" d="m304.27 899.02 7.753-6.074-5.409 1.658-1.657-5.409z" style="stroke:#ffaf37;stroke-width:2"/><path fill="none" d="M246.718 606.724c27.73 38.18 50.372 69.346 76.652 105.536m-87.23-120.1 5.723 18.09 9.71-7.052zm-64.65.03c-6 66.24-9.33 164.43 10.51 247.23 4.82 20.09 10.228 35.134 19.228 54.194" style="stroke:#ffaf37;stroke-width:2"/><path fill="#FFAF37" d="m203.79 899.04-.226-9.846-1.909 5.325-5.325-1.91z" style="stroke:#ffaf37;stroke-width:2"/><path fill="none" d="M181 336.04v102.27m0-120.27-6 18h12z" style="stroke:#ffaf37;stroke-width:2"/></svg>
